X:1
T:We Pass This Way but Once
T:We Pass This Way but Once
T:Frank Marion Davis
T:Amanda R. Meusch, 1896
T:Public Domain Courtesy of the Cyber Hymnal™
T:Public Domain Courtesy of the Cyber Hymnal™
C:Frank Marion Davis
Z:Public Domain
Z:Courtesy of the Cyber Hymnal™
%%score ( 1 2 ) ( 3 4 )
L:1/8
Q:1/4=95
M:3/4
K:Ab
V:1 treble 
V:2 treble 
V:3 bass 
V:4 bass 
V:1
 [A,C]>[B,D] | [CE]3 [EA] [EG][EA] | [EB] [EB]3 [EB][Ed] | [Ec]3 [EB] [EG]E | [Ec]4 [_Gc][Gc] | %5
w: 1.~As we|jour- ney on our|path- way, Which thro’|life’s great val- ley|leads, Let us|
w: 2.~Let us|help the wea- ry|pil- grim, Whom we|meet up- on our|way, With a|
w: 3.~Let us|not de- lay our|ac- tions, Thought- less|for an- o- ther|day; There are|
 [Fd]3 [Fd] [DF][DF] | [FB] [FB]3 [EA]>[EA] | [EG]3 [EG] [EF][EG] | [EA]4 ||[M:4/4]"^Refrain" E2 | %10
w: scat- ter seeds of|kind- ness, Strew our|path with lov- ing|deeds.||
w: kind- ly word and|ac- tion, With a|lov- ing deed to-|day.|We|
w: souls that must be|res- cued; Let us|help them while we|may.||
 (z c)EF E x4 | (z E2) x8 | (z d)EF E x4 | (z [Ec])[Ed] x8 | [Ee] c4 Ac x | [Fd] F4 [FA][FB] x | %16
w: ||||||
w: * pass this way||* but once; We|* pass|this way but once;|Let us scat- ter|
w: ||||||
 [Ec]3 [EA] [EB]3 [EA] | [EA]6 z2 |] %18
w: ||
w: seeds of kind- ness,|For|
w: ||
V:2
 x2 | x6 | x6 | x5 E | x6 | x6 | x6 | x6 | x4 ||[M:4/4] x2 | (c4- EEE E2) | (B6 EEE E2) | %12
 (d4- EEE E2) | (c6 EEE E2) | x (EEEEE) x2 | x (DDDDD) x2 | x8 | x8 |] %18
V:3
 [A,,E,]>[A,,E,] | [A,,A,]3 [C,E,] [D,B,][C,A,] | [B,,G,] [E,G,]3 [E,G,][E,B,] | %3
w: ~ ~|~ ~ ~ ~|~ ~ ~ ~|
 A,3 [E,G,] [E,B,][E,G,] | [A,,A,]4 [A,,A,][A,,A,] | [D,A,]3 [D,A,] [D,A,][D,A,] | %6
w: ~ ~ ~ ~|~ ~ ~|~ ~ ~ ~|
 [B,,D] [B,,D]3 [E,C]>[E,C] | [E,B,]3 [E,B,] [E,D][E,D] | [A,,C]4 || z2 | %10
w: ~ ~ ~ ~|~ ~ ~ ~|~||
 z [A,,A,] [A,,A,][A,,A,] [A,,A,]2 z2 x | z [E,G,] [E,G,][E,G,] [E,G,]2 z2 x3 | %12
w: We pass this way,|this way but once,|
 z [E,G,] [E,G,][E,G,] [E,G,]2 z2 x | z A, [E,A,][C,A,] [A,,A,]2 [A,,A,][A,,B,] x3 | %14
w: We pass this way,|this way but once; Let us|
 [A,,C][A,,A,] [A,,A,][A,,A,] [A,,A,][A,,A,] z2 | %15
w: scat- ter seedss sof kind- ness|
 [D,A,][D,A,] [D,A,][D,A,] [D,A,][D,A,][D,A,][D,A,] | [E,A,]3 [E,C] [E,D]3 [A,,C] | [A,,C]6 z2 |] %18
w: scat- ter seeds of kind- ness, * *|||
V:4
 x2 | x6 | x6 | A,3 x3 | x6 | x6 | x6 | x6 | x4 || x2 | x9 | x11 | x9 | x A, x9 | x8 | x8 | x8 | %17
 x8 |] %18

